X:1
T:Vesperi Lux, 77.75
T:John Bacchus Dykes (1823-1876)
T:Vesperi Lux, 77.75
T:Public Domain
C:John Bacchus Dykes (1823-1876)
Z:Public Domain
%%score ( 1 2 ) ( 3 4 )
L:1/8
M:4/4
K:Ab
V:1 treble 
V:2 treble 
V:3 bass 
V:4 bass 
V:1
 [CE]2 [CF]2 [DF]2 [CE]2 | [CA]2 [EB]2 [Ec]4 | [Ee]2 Bc [Dd]2 [Ec]2 | [FB]2 CD A2 G2 | %4
 [EA]2 [EA]2 [EB]2 [Ec]2 | [Dd]2 A2 [A=d]4 | [Ee]3 [CE] E2 DC | [CE]8 |] %8
V:2
 x8 | x8 | x2 E2 x4 | x2 A2 E4 | x8 | x8 | x4 D2 E2 | x8 |] %8
V:3
 A,2 [F,A,]2 [D,A,]2 [A,,A,]2 | [F,A,]2 [E,G,]2 A,4 | [A,B,]2 [G,B,]2 [F,A,]2 [E,G,]2 | %3
 [D,F,]2 [F,A,]2 C2 B,2 | [A,C]2 [A,C]2 [G,B,]2 [G,A,]2 | F,2 F,-F, _C2 B,A, | %6
 [E,C]3 [E,A,] [E,B,]2 A,G, | [A,,A,]8 |] %8
V:4
 x8 | x4 A,4 | x8 | x4 E,4 | x8 | A,3 B, _F,4 | x6 E,2 | x8 |] %8

